!!!!SEGMENT: pl-wn--sd-xvi-qu-273--001-040_gomolka-mikolaj--melodiae-na-psalterz-polski-xl-czekalem-z-cierpliwoscia-a-pan-mie-obaczyl.krn
!!!cenid: 15xx:245
!!!COM: Gomółka, Mikołaj
!!!COM-rismID: pe30013343
!!!CDT: ~1535->1591/04/30
!!!CNT: Polish
!!!GTL: Melodiae na psalterz polski
!!!OTL: XL. Czekałem z cierpliwością, a Pan mię obaczył
!!!OMV: 040
!!!PDT: 1580
!!!AGN: Sacred
!!!YEC: Copyright 2022 Narodowy Instytut Fryderyka Chopina (https://polishscores.org)
!!!YEM: License CC-BY-4.0 (https://creativecommons.org/licenses/by/4.0)
!!!SMS-siglum: PL-Wn
!!!SMS-shelfmark: SD XVI.Qu.273
!!!SMS-shelfwork: 001-040 G
!!!NIFC-rismSourceID: 990022100
!!!NIFC-rismChildID: 990022100
!!!NIFC-islandoraID: none
!!!URL-pdf-islandora:
!!!URL-scan: https://polona2.pl/item/melodiae-na-psalterz-polski,Nzk3MTM4ODQ/102 @EN{Scan on Polona} @PL{Skany w portalu Polona}
!!!IIIF: https://polona2.pl/iiif/item/Nzk3MTM4ODQ/manifest.json
!!!ONB-nifc: Melodiae na psalterz polski
!!!AIN: 1 alto 1 bass 1 soprn 1 tenor
!!!key:
**kern	**text	**kern	**text	**kern	**text	**kern	**text
*part4	*	*part3	*	*part2	*	*part1	*
*staff4	*	*staff3	*	*staff2	*	*staff1	*
*Ibass	*	*Itenor	*	*Ialto	*	*Isoprn	*
*I"BASSVS.	*	*I"TENOR.	*	*I"ALTVS.	*	*I"CANTVS.	*
*clefF4	*	*clefC4	*	*clefC3	*	*clefC1	*
*k[b-]	*	*k[b-]	*	*k[b-]	*	*k[b-]	*
*g:	*	*g:	*	*g:	*	*g:	*
*M2/1	*	*M2/1	*	*M2/1	*	*M2/1	*
*met(C|)	*	*met(C|)	*	*met(C|)	*	*met(C|)	*
*MM300	*	*MM300	*	*MM300	*	*MM300	*
=1-	=1-	=1-	=1-	=1-	=1-	=1-	=1-
*xywh-41r:673,5306,4737,1243	*	*xywh-41r:655,4054,4789,1217	*	*xywh-41r:647,2802,4789,1225	*	*xywh-41r:620,1173,4815,1584	*
1GG	Cze-	1G	Cze-	1B	Cze-	1d	Cze-
1C	-ťa-	1G	-ťa-	1c	-ťa-	1e-X	-ťa-
=2-	=2-	=2-	=2-	=2-	=2-	=2-	=2-
2D/	-łem	2F#X	-łem	2A	-łem	2d	-łem
1D	ӡ_ćiér-	1A	ӡ_ćiér-	1f	ӡ_ćiér-	1d	ӡ_ćiér-
2BB-	-pli-	2B-	-pli-	2f	-pli-	2d	-pli-
=3-	=3-	=3-	=3-	=3-	=3-	=3-	=3-
1E	-(woś-	1G	-(woś-	2g	-wo(ś	2B-	-(woś
.	.	.	.	2e	.	2c	.
2D/	-cią)	2A/	-cią)	2f	cią)	2d	cią)
2D/	á	1d	á	2f	á	2a	á
=4-	=4-	=4-	=4-	=4-	=4-	=4-	=4-
1G	pan	.	.	2g	pan	1b-	pan
.	.	2B-	pan	4d	.	.	.
.	.	.	.	4e	.	.	.
2F	mie	1c	mie_o-	2f	mie	2a	mie
2C/	o-	.	.	2e	o-	2cc	o-
=5-	=5-	=5-	=5-	=5-	=5-	=5-	=5-
2D/	-ba	2F	-ba-	2f	-ba	1b-	-(ba-
2E	.	2G	.	4e	.	.	.
.	.	.	.	4d	.	.	.
2F	(cӡył)	2A/	cӡył	2c	cӡył	2a	-cӡył)
2D/	Y	2f	Y	2a	Y	2dd	Y
=6-	=6-	=6-	=6-	=6-	=6-	=6-	=6-
2G	proś-	2d	pro(ś-	2g	pro(ś-	2bn	proś-
2GG	-(by)	2d	-by)	2g	-by)	2b	-(by)
2C	mo-	2.e	mo-	2.g	mo-	2.cc	mo-
2C	.	.	.	.	.	.	.
.	.	4d	.	4f	.	4b	.
=7-	=7-	=7-	=7-	=7-	=7-	=7-	=7-
2F	ie	2c	ie	2f	(ie)	2a	(ie)
2FF	wyʃ-	2c	wyʃ-	2f	wyʃ-	2cc	wyʃ-
2BB-	-łu-	2d	-łu-	2f	-łu-	2b-	-łu-
2BB-	-(cháć)	2d	-cháć	2f	-(cháć)	2b-	-(cháć)
=8-	=8-	=8-	=8-	=8-	=8-	=8-	=8-
4GG	ra	1d	ra-	1g	ra-	1b-	ra-
4AA	.	.	.	.	.	.	.
4BB-	.	.	.	.	.	.	.
4C	.	.	.	.	.	.	.
1Dll	czył.	1dll	-czył.	1f#Xll	-czył.	1a/ll	-czył.
==-	==-	==-	==-	==-	==-	==-	==-
*-	*-	*-	*-	*-	*-	*-	*-
!!!system-decoration: s1,s2,s3,s4
!!!RDF**kern: l = terminal long
!!!ENC: Anna Matuszewska
!!!END: 2020-02-08
!!!ENC-iiif: Craig Stuart Sapp
!!!END: 2021-12-07
